X:1
T:Mrs. C. H. Morris
T:Mrs. C. H. M.
T:No Crown Without the Cross
%%score { ( 1 2 ) | ( 3 4 5 ) }
L:1/8
M:4/4
K:F
V:1 treble 
V:2 treble 
V:3 bass 
V:4 bass 
V:5 bass 
V:1
"^Duet"{/C} C2 | A3 G FCDC | E6 G2 | c3 d cBGB | A6 A2 | c3 c =Bcdc | B6 B2 | AAFF D2 G2 | %8
w: "If|thou wouldst My dis\- ci\- ple|be, Take|up thy cross and fol\- low|Me;" And|where the Lord be\- fore has|gone, Fear|not, my soul, to fol\- low|
w: If|lone\- ly seems the way I|take, If|foes de\- ride and friends for\-|sake, I'll|think of Him who prayed for|me A\-|lone in dark Geth\- se\- ma\-|
w: For|us the cru\- el cross He|bore, For|us the thorn\- y crown He|wore, That|crowns of glo\- ry ours might|be Through\-|out a long e\- ter\- ni\-|
w: Then|joy\- ful\- ly the cross I|take, And|hum\- bly bear it for His|sake Un\-|til in death I lay it|down, And|go to claim my gol\- den|
 F4- F"^Chorus"A^GA | c4- cBA^G | F4- FAAA | d4- dFFG | %12
w: on. * There is no|crown * with- out the|cross, * No vic\- tor's|palm * with\- out the|
w: ne. * * * *||||
w: ty. * * * *||||
w: crown. * * * *||||
"^rit." A4-[Q:1/4=112][Q:1/4=72][Q:1/4=48]"^Largo" !fermata!A[Q:1/4=120]"^Allegretto"ced | %13
w: dross; * If I at|
w: |
w: |
w: |
 c4- cBAG | F4- FFdd | c4- cAAG | F4- F2 |] %17
w: last * the crown would|wear, * Then I the|cross * must sure\- ly|bear. *|
w: ||||
w: ||||
w: ||||
V:2
 A,2 | C3 D A,A,^F,A, | B,6 B,2 | E3 E EEED | C6 F2 | A3 A ^GA_BA | G6 _D2 | CCCC =B,2 A,2 | %8
 A,4- A,C=B,C | E4- EDC=B, | C4- CC^CC | D4 DDDD | D"^Moderato"D"^Adagio"DD ^CEGF | E4- EDC^C | %14
 D4- DDFF | F4- FFEE | CC DD C2 |] %17
V:3
 z2 | z8 | z8 | z8 | z8 | z8 | z8 | z8 | z8 | z8 | z8 | z8 | z8 | z8 | z8 | z A,A,A, A, z B,2 | %16
w: |||||||||||||||Then I the cross, the|
 z6 |] %17
w: |
V:4
 z2 | [F,,C,]2 F,2 [F,,C,]2 F,2 | z C,E,A, G,2 z2 | [C,G,]2 B,2 [C,G,]2 B,2 | %4
w: ||||
 z F,,A,,C, [F,,F,]2 z2 | F,,2 [C,F,A,]2 F,,2 [C,F,A,]2 | G,,D,G,D, G,,2 z2 | F,4 G,2 E,2 | %8
w: ||||
 [F,,C,F,-]4 [F,,C,F,] z z2 | z G,G,G, G, z z2 | z F,F,F, F,F,G,G, | F,4- F,A,B,F, | %12
w: |There is no crown|||
 F,F,F,F, E, z z2 | z G,G,G, B, z z2 | z A,A,A, A, z z2 | z x z z z z2 z | A,A, B,B, A,2 |] %17
w: * with- out the cross;|If I at last|the crown would wear,||cross must sure- ly bear.|
V:5
 x2 | x8 | x8 | x8 | x8 | x8 | x8 | C,4 G,,2 C,2 | x8 | z C,C,C, C, z z2 | z F,F,F, F,F,E,E, | %11
w: ||||||||||with- out the cross, * * *|
 D,4- D,D,B,,B,, | A,,4- A,, z z2 | z C,C,C, C, z z2 | z D,D,D, D, z z2 | z C,C,C, C, z C,2 | %16
w: |||||
 F,F, F,F, F,2 |] %17
w: |

